icons/lines/align-horizontally.svg

<svg xmlns="http://www.w3.org/2000/svg" width="24" height="24" viewBox="0 0 24 24" fill="none" stroke="currentColor" stroke-width="2" stroke-linecap="round" stroke-linejoin="round">
  <path d="M11 12h2" />
  <path d="M13.25 8.6c0-1.5.64-2.1 2.23-2.1h1.04c1.59 0 2.23.6 2.23 2.1v6.8c0 1.5-.64 2.1-2.23 2.1h-1.04c-1.59 0-2.23-.6-2.23-2.1z" />
  <path d="M2 12h2.4" />
  <path d="M22 12h-2.69" />
  <path d="M4.75 6.6c0-1.5.64-2.1 2.23-2.1h1.04c1.59 0 2.23.6 2.23 2.1v10.8c0 1.5-.64 2.1-2.23 2.1H6.98c-1.59 0-2.23-.6-2.23-2.1z" />
</svg>

<svg xmlns="http://www.w3.org/2000/svg" width="24" height="24" viewBox="0 0 24 24" fill="none" stroke="currentColor" stroke-width="2" stroke-linecap="round" stroke-linejoin="round" >
  <path d="M4.75 17.4V6.6C4.75 5.1 5.39 4.5 6.98 4.5H8.02C9.61 4.5 10.25 5.1 10.25 6.6V17.4C10.25 18.9 9.61 19.5 8.02 19.5H6.98C5.39 19.5 4.75 18.9 4.75 17.4Z"/>
  <path d="M13.25 15.4V8.6C13.25 7.1 13.89 6.5 15.48 6.5H16.52C18.11 6.5 18.75 7.1 18.75 8.6V15.4C18.75 16.9 18.11 17.5 16.52 17.5H15.48C13.89 17.5 13.25 16.9 13.25 15.4Z"/>
  <path d="M2 12H4.4"/>
  <path d="M11 12H13"/>
  <path d="M22.0001 12H19.3101"/>
  </svg>
